X:128
%%pagewidth 8.5in
%%vocalfont Baskerville10Pro 14
T:The Spanish Pavan
M:C
L:1/8
K:Bb
%%score 1 2
V:1 clef-treble
V:2 clef-bass octave=-1
V:1
D2|G2B2A2G2&B,4E4|[A,^F]2D2D2=E2|^F2G2A2F2&A,4C4|
w:When Sam-son was a tall young man, His pow'r and strength in-
V:2
z2|G4C4|D8|D4D4|
V:1
G3A[GB]2[FA]2&B,4x4|[^EG]2[CE]2[CF]2[B,EG]2|[A,FA]2F4c2|c3dc2[EB]2&[=EG]2x6|(A3G)F2&F2x4||
w:creas-ed then, And in the host and tribe of~Dan, The Lord did bless him al-*way.
V:2
G4G,4|C2B,2A,2G,2|F,4A,4|C8&x6c2|c3BA2&F6||
V:1
[Fc]2|d2c2B2A2&F4F4|B3cd2cB&D4G4|c2B2A2G2&G4E4|[A,^F]2D2D2=E2|
w:It chan-ced so up-on a day, As* he was walk-ing on his way, He
V:2
A,2|B,4D4|G4B,4|E4C4|D8|
V:1
^F2G2A2F2&A,4C4|G2A2B2c2&B,4G4|d2(cB) [^FA][=EG][FA]2&G4x4|G6||
w:saw a maid-en fresh and gay, In Tim-nath,* in* Tim-nath.
V:2
D4D4|G4E4|[DB]4[Dc]4|[GB]6||

